X: 23
T: Lanigan's Ball
B: begged borrowed and stolen
M:6/8
L:1/8
R: jig
Q: 3/8=100
K:Eminor
V:1 
|:D|"Em"EDE G2A|B2A B^cd|"D"DED F2G|AdB AFD|
 "Em"EDE G2A|B2A B^cd|edB "Am"cBA|"Em"BGE E2:|
|:d|"Em"e2f g2e|"D"fag fed|"Em"e2f g2e|"Bm"fdB B2d|
"Em"e2f g2e|"D"fag fed|"Em"edB "Am"cBA|"Em"BGE E2:|
% abcbook-tune_id 62828a3a9ed88430095357f3


% abcbook-boost 0
% abcbook-tablature 
% abcbook-transpose 
% abcbook-lastupdated 1652725431056
% abcbook-soundfonts 
% abcbook-repeats 3
% abc-sessionorg_id 264
% abc-sessionorg_setting 0
% abc-sessionorg_setting_id 43100
% abc-boost 0

